X:1
T:The Brown Haired Maiden
R:March
C:Trad. / Arr. WUSPBA
L:1/8
M:2/4
K:D
[|: {g}A | {Gdc}d>c {gBd}B{e}A | {Gdc}d2 {g}A{Gdc}d | {g}fd {gf}gf | {gfg}fe {A}e{gf}g |
{a}f<a {fg}fa | {GAG}A2 {Gdc}d>e | {g}f2 {gf}g{a}e | {Gdc}d2 {gdG}d :|]
[|: {gf}g | {a}f<a {fg}fa | A2 {Gdc}d>e | {g}fd {gf}gf | {gfg}fe {A}e {gf}g |
[1 {a}f<a {fg}fa | {GAG}A2 {Gdc}d>e | {g}f2 {gf}g{a}e | {Gdc}d2 {gdG}d :|]
[2 {ag}a>g {fg}fa | {GAG}A2 {Gdc}d>e | {g}f2 {gf}g{a}e | {Gdc}d2 {gdG}d |]